www/assets/icons/developer_mode.svg

<svg xmlns="http://www.w3.org/2000/svg" width="24" height="24" viewBox="0 0 24 24" fill='currentColor'><path d="M7 5h10v2h2V3c0-1.1-.9-1.99-2-1.99L7 1c-1.1 0-2 .9-2 2v4h2zm8.41 11.59L20 12l-4.59-4.59L14 8.83 17.17 12 14 15.17zM10 15.17 6.83 12 10 8.83 8.59 7.41 4 12l4.59 4.59zM17 19H7v-2H5v4c0 1.1.9 2 2 2h10c1.1 0 2-.9 2-2v-4h-2z"/></svg>

<svg width="24" height="24" viewBox="0 0 24 24" xmlns="http://www.w3.org/2000/svg" fill='currentColor'><path d="M7 5H17V7H19V3C19 1.9 18.1 1.01 17 1.01L7 1C5.9 1 5 1.9 5 3V7H7V5ZM15.41 16.59L20 12L15.41 7.41L14 8.83L17.17 12L14 15.17L15.41 16.59ZM10 15.17L6.83 12L10 8.83L8.59 7.41L4 12L8.59 16.59L10 15.17ZM17 19H7V17H5V21C5 22.1 5.9 23 7 23H17C18.1 23 19 22.1 19 21V17H17V19Z"/></svg>
